Adwaita++-Light/panel/24/cisco-tray-connected.svg

<svg height="24" width="24" xmlns="http://www.w3.org/2000/svg">
  <path d="m12 4c-2.990275 0-5.5819281 1.6269634-6.9550781 4.0449219 1.165789-.6620476 2.5133531-1.0449219 3.9550781-1.0449219.524759 0 1.037157.052885 1.533203.1484375.0018-.00466.0041-.00902.0059-.013672.109049-.2835808.233686-.5574434.373047-.8242187.0129-.024874.02592-.049498.03906-.074219.127806-.238484.267456-.4682357.417969-.6914062.02988-.044688.05714-.090725.08789-.1347657.151973-.215866.314284-.4236254.486328-.6230468.02804-.032693.05347-.067383.08203-.099609.204469-.2295141.419071-.4495693.648401-.654297-.222608-.018441-.446301-.0332031-.673828-.0332031zm3.226562.6777344c-.289386.1504875-.560133.3292648-.818359.5234375-.06417.047973-.123414.1018974-.185547.1523437-.214183.1751328-.419783.3614802-.607422.5644532-.02986.032021-.06068.06303-.08984.095703-.457517.5172888-.829449 1.1116662-1.089844 1.765625 1.928051.9151663 3.413906 2.5813972 4.115234 4.6191412.430018-.246609.919784-.398438 1.449216-.398438.750595 0 1.426039.292965 1.949219.757812.024015-.250568.050781-.500525.050781-.757812 0-3.2816681-1.958742-6.0857175-4.773438-7.3222656zm-6.226562 4.3222656c-2.079471 0-3.9066899 1.046465-4.9824219 2.644531-.0052.118709-.0175781.235439-.0175781.355469 0 4.432 3.568 8 8 8 .119372 0 .235451-.01245.353516-.01758h.002c.65777-.442836 1.208785-1.022669 1.644484-1.685545v-1.392578c-.119225-.0696-.245649-.127996-.361328-.203125-.03237-.021-.06366-.043-.0957-.06445-.285849-.191584-.560432-.397127-.81836-.623047-.0031-.0027-.0066-.0051-.0098-.0078-.261357-.229614-.505115-.478562-.734375-.740234-.03115-.0355-.06127-.07137-.0918-.107422-.209976-.248385-.407211-.506126-.585938-.779297-.01292-.01971-.02632-.03876-.03906-.05859-.181167-.282329-.341251-.57938-.486328-.884765-.02795-.05873-.05353-.118216-.08008-.177735-.131227-.294674-.250319-.595729-.345703-.908203-.0065-.02114-.01519-.04128-.02148-.0625-.09544-.322294-.164079-.655937-.21875-.99414-.01282-.07917-.02467-.158327-.03516-.238281-.045214-.345716-.076138-.696225-.076138-1.054708 0-.305652.01754-.605983.05078-.902344-.3415027-.059938-.691583-.097656-1.05078-.097656zm3.013672.8125c-.002.06327-.013672.123738-.013672.1875 0 .248781.01965.491853.04883.732422.0089.07358.02169.146032.0332.21875.02793.17572.0627.349374.105469.519531.01772.07068.0345.141289.05469.210938.0659.226739.141381.449467.232421.664062.0966.2277.209115.446117.332032.658203.01642.02842.03391.05586.05078.08399.115562.192026.241224.377564.376953.554687.01328.01738.02559.03551.03906.05273.306563.391105.659422.742732 1.052734 1.046876.01616.01252.03254.02475.04883.03711.105246.07968.21957.147583.330078.220703l.294923-.000002c0-2.222828-1.19944-4.150687-2.986328-5.1875zm5.986328 3.1875c-1.108 0-2 .9109-2 2.03125v.96875h-1v4h6v-4h-1v-.96875c0-1.1199-.892-2.03125-2-2.03125zm0 1c.554 0 1 .4424 1 1v1h-2v-1c0-.5576.446-1 1-1z" fill="#444"/>
</svg>

<svg xmlns="http://www.w3.org/2000/svg" width="24" height="24" version="1.1">
 <defs>
  <style id="current-color-scheme" type="text/css">
   .ColorScheme-Text { color:#444444; } .ColorScheme-Highlight { color:#4285f4; }
  </style>
 </defs>
 <path style="fill:currentColor" class="ColorScheme-Text" d="M 12,4 C 9.009725,4 6.4180719,5.6269634 5.0449219,8.0449219 6.2107109,7.3828743 7.558275,7 9,7 c 0.524759,0 1.037157,0.052885 1.533203,0.1484375 0.0018,-0.00466 0.0041,-0.00902 0.0059,-0.013672 0.109049,-0.2835808 0.233686,-0.5574434 0.373047,-0.8242187 0.0129,-0.024874 0.02592,-0.049498 0.03906,-0.074219 0.127806,-0.238484 0.267456,-0.4682357 0.417969,-0.6914062 0.02988,-0.044688 0.05714,-0.090725 0.08789,-0.1347657 0.151973,-0.215866 0.314284,-0.4236254 0.486328,-0.6230468 0.02804,-0.032693 0.05347,-0.067383 0.08203,-0.099609 C 12.229896,4.457986 12.444498,4.2379308 12.673828,4.0332031 12.45122,4.0147621 12.227527,4 12,4 Z m 3.226562,0.6777344 c -0.289386,0.1504875 -0.560133,0.3292648 -0.818359,0.5234375 -0.06417,0.047973 -0.123414,0.1018974 -0.185547,0.1523437 -0.214183,0.1751328 -0.419783,0.3614802 -0.607422,0.5644532 -0.02986,0.032021 -0.06068,0.06303 -0.08984,0.095703 -0.457517,0.5172888 -0.829449,1.1116662 -1.089844,1.765625 1.928051,0.9151663 3.413906,2.5813972 4.115234,4.6191412 C 16.980802,12.151829 17.470568,12 18,12 c 0.750595,0 1.426039,0.292965 1.949219,0.757812 C 19.973234,12.507244 20,12.257287 20,12 20,8.7183319 18.041258,5.9142825 15.226562,4.6777344 Z M 9,9 C 6.920529,9 5.0933101,10.046465 4.0175781,11.644531 4.0123781,11.76324 4,11.87997 4,12 c 0,4.432 3.568,8 8,8 0.119372,0 0.235451,-0.01245 0.353516,-0.01758 l 0.002,0 C 13.013286,19.539584 13.564301,18.959751 14,18.296875 l 0,-1.392578 c -0.119225,-0.0696 -0.245649,-0.127996 -0.361328,-0.203125 -0.03237,-0.021 -0.06366,-0.043 -0.0957,-0.06445 -0.285849,-0.191584 -0.560432,-0.397127 -0.81836,-0.623047 -0.0031,-0.0027 -0.0066,-0.0051 -0.0098,-0.0078 -0.261357,-0.229614 -0.505115,-0.478562 -0.734375,-0.740234 -0.03115,-0.0355 -0.06127,-0.07137 -0.0918,-0.107422 -0.209976,-0.248385 -0.407211,-0.506126 -0.585938,-0.779297 -0.01292,-0.01971 -0.02632,-0.03876 -0.03906,-0.05859 -0.181167,-0.282329 -0.341251,-0.57938 -0.486328,-0.884765 -0.02795,-0.05873 -0.05353,-0.118216 -0.08008,-0.177735 -0.131227,-0.294674 -0.250319,-0.595729 -0.345703,-0.908203 -0.0065,-0.02114 -0.01519,-0.04128 -0.02148,-0.0625 -0.09544,-0.322294 -0.164079,-0.655937 -0.21875,-0.99414 -0.01282,-0.07917 -0.02467,-0.158327 -0.03516,-0.238281 C 10.030924,10.708992 10,10.358483 10,10 10,9.694348 10.01754,9.394017 10.05078,9.097656 9.7092773,9.037718 9.359197,9 9,9 Z m 3.013672,0.8125 C 12.011672,9.87577 12,9.936238 12,10 c 0,0.248781 0.01965,0.491853 0.04883,0.732422 0.0089,0.07358 0.02169,0.146032 0.0332,0.21875 0.02793,0.17572 0.0627,0.349374 0.105469,0.519531 0.01772,0.07068 0.0345,0.141289 0.05469,0.210938 0.0659,0.226739 0.141381,0.449467 0.232421,0.664062 0.0966,0.2277 0.209115,0.446117 0.332032,0.658203 0.01642,0.02842 0.03391,0.05586 0.05078,0.08399 0.115562,0.192026 0.241224,0.377564 0.376953,0.554687 0.01328,0.01738 0.02559,0.03551 0.03906,0.05273 0.306563,0.391105 0.659422,0.742732 1.052734,1.046876 0.01616,0.01252 0.03254,0.02475 0.04883,0.03711 0.105246,0.07968 0.21957,0.147583 0.330078,0.220703 L 15,15 C 15,12.777172 13.80056,10.849313 12.013672,9.8125 Z M 18,13 c -1.108,0 -2,0.9109 -2,2.03125 L 16,16 l -1,0 0,4 6,0 0,-4 -1,0 0,-0.96875 C 20,13.91135 19.108,13 18,13 Z m 0,1 c 0.554,0 1,0.4424 1,1 l 0,1 -2,0 0,-1 c 0,-0.5576 0.446,-1 1,-1 z"/>
</svg>
